X: 198
T:LARIDE 3
M:6/8
L:1/8
Q:1/4=88
Z:Yves BELOTTEAU
K:C
|:Ac/2ef/2 ed/2c3/2|cB/2AB/2 c/2B/2A/2ec/2|Ac/2ef/2 ed/2c3/2|ce/2cd/2 Bc
/2A3/2:|
|:A3/2B3/2 c3/2d3/2|df/2ed/2 cd/2ec/2|A3/2B3/2 c3/2d3/2|df/2ed/2 cB/2A3/
2:|
W:
W: From "Falaleiro" http://home.t-online.de/home/pheld/homepage.htm
